src/assets/filled/RotateLeft1.svg

<svg width="24" height="24" viewBox="0 0 24 24"  xmlns="http://www.w3.org/2000/svg">
<path d="M7.25 22H11.75C15.5 22 17 20.5 17 16.75V12.25C17 8.5 15.5 7 11.75 7H7.25C3.5 7 2 8.5 2 12.25V16.75C2 20.5 3.5 22 7.25 22Z" />
<path d="M21.2499 10.5C20.8399 10.5 20.4999 10.16 20.4999 9.75C20.4999 6.79 18.4399 4.31 15.6699 3.66L15.9399 4.11C16.1499 4.47 16.0399 4.93 15.6799 5.14C15.3199 5.35 14.8599 5.24 14.6499 4.88L13.5999 3.13C13.4599 2.9 13.4599 2.61 13.5899 2.38C13.7299 2.15 13.9799 2 14.2499 2C18.5199 2 21.9999 5.48 21.9999 9.75C21.9999 10.16 21.6599 10.5 21.2499 10.5Z" />
</svg>

<?xml version="1.0" encoding="UTF-8"?>
<svg width="24" height="24" viewBox="0 0 24 24" xmlns="http://www.w3.org/2000/svg">
 <path d="M7.25 22H11.75C15.5 22 17 20.5 17 16.75V12.25C17 8.5 15.5 7 11.75 7H7.25C3.5 7 2 8.5 2 12.25V16.75C2 20.5 3.5 22 7.25 22Z"/>
 <path d="m21.25 10.5c-0.41 0-0.75-0.34-0.75-0.75 0-2.96-2.06-5.44-4.83-6.09l0.27 0.45c0.21 0.36 0.1 0.82-0.26 1.03s-0.82 0.1-1.03-0.26l-1.05-1.75c-0.14-0.23-0.14-0.52-0.01-0.75 0.14-0.23 0.39-0.38 0.66-0.38 4.27 0 7.75 3.48 7.75 7.75 0 0.41-0.34 0.75-0.75 0.75z"/>
</svg>
